X:1
T:The Morris March
T:Winster Processional
M:C|
L:1/8
S:West Coast Teams
N:as used on tours
A:Winster
O:English
R:Reel
K:G
|: d2 | "G"g2d2 "D7"d2ef | "G"g2d2 "D7"d2ef |  "G"g2d2 "D7"dedc | "G"B4 G2 :|
   B2 | "C"c2e2     e2dc | "G"B2d2     d2cB | "D7"A2B2     c2d2 | "G"B4 d2 ||
   B2 | "C"c2e2     e2dc | "G"Bcd2 "D7"d2ef |  "G"g2d2 "D7"dedc | "G"B4 G2 |]
